public/image/timeline/left.svg

<svg width="300" height="300" viewBox="0 0 300 300" fill="none" xmlns="http://www.w3.org/2000/svg">
<g opacity="0.3">
<path d="M101.161 186.748C80.0165 181.275 58.3549 178.28 37.1137 173.29C36.0468 171.229 40.7347 172.582 41.8986 171.905C47.2978 172.904 52.5354 174.642 57.9993 174.932C78.7556 180.18 100.417 181.565 120.785 188.487C128.221 190.773 137.953 192.286 143.094 185.364C141.024 181.371 136.336 179.44 133.33 176.155C138.115 175.705 142.867 175.254 147.555 174.417C150.982 173.773 154.183 173.644 157.513 173.419C163.85 172.839 170.187 171.97 176.556 172.388C179.854 170.714 183.701 171.455 187.225 171.133C195.146 171.583 202.938 169.909 210.794 169.619C212.378 169.104 213.962 168.75 215.579 168.525C218.23 169.201 219.976 169.072 221.108 168.428C222.465 168.428 223.856 168.428 225.214 168.364C230.774 167.559 236.335 167.784 241.864 167.301C249.688 167.108 257.092 164.307 264.851 164.017C269.507 163.695 274.194 163.309 278.753 162.472C284.799 161.28 283.958 148.884 275.52 153.392C274.938 150.688 264.237 156.386 266.176 151.267C270.476 150.044 274.809 148.82 278.947 147.146C279.206 140.964 269.668 145.955 265.821 143.636C268.246 141.64 271.382 140.449 273.289 137.873C264.819 139.612 256.348 141.157 247.78 142.22C234.201 142.703 220.817 145.439 207.238 145.697C191.719 145.6 175.715 149.206 160.585 147.532C161.328 147.178 162.783 146.502 163.494 146.148C171.771 146.148 179.951 144.731 188.13 143.604C200.06 141.383 212.314 142.381 224.276 140.256C234.298 140.191 244.644 140.61 254.311 137.648C258.902 136.778 263.396 135.49 267.922 134.46C267.728 134.042 267.373 133.237 267.179 132.818C262.458 134.203 257.512 135.265 252.565 135.362C250.949 135.587 249.332 135.812 247.78 136.295C244.353 136.424 240.732 136.682 237.241 136.521C232.391 137.294 227.671 138.388 222.659 137.68C224.438 136.972 226.28 136.456 228.026 135.78C224.502 135.587 220.817 135.555 217.228 135.362C212.669 135.651 208.111 136.295 203.617 137.068C194.273 137.422 184.38 134.299 175.327 137.744C170.219 138.549 165.24 139.58 160.003 139.515C154.539 141.286 148.654 139.837 142.997 140.288L140.604 140.288C131.358 140.706 122.176 138.903 112.929 139.322C110.989 138.936 107.853 139.74 108.079 136.811C108.5 136.489 109.34 135.845 109.761 135.49C111.991 135.49 113.867 134.492 115.645 133.365C117.358 131.917 116.162 129.888 115.839 128.15C117.488 128.922 118.361 131.176 120.365 129.759C125.473 127.924 131.649 124.93 131.972 118.909C128.771 115.013 133.039 109.346 126.346 108.219C118.425 106.964 110.407 111.343 103.295 115.077C98.5743 117.106 94.048 119.617 89.2954 121.646L89.0367 122.515C79.3375 126.507 69.7677 130.725 59.6481 133.623C57.0617 134.557 54.4429 135.426 51.8888 136.489C42.5452 138.42 33.2017 140.417 23.9551 142.896C23.5995 145.214 22.9205 147.5 21.5949 149.496C26.9942 150.752 23.2761 156.386 21.9506 159.703C21.207 162.955 24.0521 164.854 26.8649 165.595C27.4468 168.203 30.0979 169.233 32.2317 170.328C27.2851 174.03 17.2626 162.021 17.2626 170.231L17.6506 171.165C18.2972 171.39 19.6228 171.841 20.2694 172.066C32.2317 176.703 44.7114 179.858 57.2233 182.691C61.685 183.271 66.0819 184.044 70.4142 185.106C82.2473 187.296 94.4683 188.777 105.816 192.769C115.936 193.542 104.976 189.195 101.096 186.845L101.161 186.748Z" fill="#1F1B13"/>
</g>
</svg>

<svg xmlns="http://www.w3.org/2000/svg" width="300" height="300" fill="none"><path fill="#1F1B13" d="M101.161 186.748c-21.145-5.473-42.806-8.468-64.047-13.458-1.067-2.061 3.62-.708 4.785-1.385 5.399.999 10.636 2.737 16.1 3.027 20.757 5.248 42.418 6.633 62.786 13.555 7.436 2.286 17.168 3.799 22.309-3.123-2.07-3.993-6.758-5.924-9.764-9.209 4.785-.45 9.537-.901 14.225-1.738 3.427-.644 6.628-.773 9.958-.998 6.337-.58 12.674-1.449 19.043-1.031 3.298-1.674 7.145-.933 10.669-1.255 7.921.45 15.713-1.224 23.569-1.514a27.7 27.7 0 0 1 4.785-1.094c2.651.676 4.397.547 5.529-.097 1.357 0 2.748 0 4.106-.064 5.56-.805 11.121-.58 16.65-1.063 7.824-.193 15.228-2.994 22.987-3.284 4.656-.322 9.343-.708 13.902-1.545 6.046-1.192 5.205-13.588-3.233-9.08-.582-2.704-11.283 2.994-9.344-2.125 4.3-1.223 8.633-2.447 12.771-4.121.259-6.182-9.279-1.191-13.126-3.51 2.425-1.996 5.561-3.187 7.468-5.763-8.47 1.739-16.941 3.284-25.509 4.347-13.579.483-26.963 3.219-40.542 3.477-15.519-.097-31.523 3.509-46.653 1.835.743-.354 2.198-1.03 2.909-1.384 8.277 0 16.457-1.417 24.636-2.544 11.93-2.221 24.184-1.223 36.146-3.348 10.022-.065 20.368.354 30.035-2.608 4.591-.87 9.085-2.158 13.611-3.188-.194-.418-.549-1.223-.743-1.642-4.721 1.385-9.667 2.447-14.614 2.544-1.616.225-3.233.45-4.785.933-3.427.129-7.048.387-10.539.226-4.85.773-9.57 1.867-14.582 1.159 1.779-.708 3.621-1.224 5.367-1.9-3.524-.193-7.209-.225-10.798-.418-4.559.289-9.117.933-13.611 1.706-9.344.354-19.237-2.769-28.29.676-5.108.805-10.087 1.836-15.324 1.771-5.464 1.771-11.349.322-17.006.773h-2.393c-9.246.418-18.428-1.385-27.675-.966-1.94-.386-5.076.418-4.85-2.511a59 59 0 0 0 1.682-1.321c2.23 0 4.106-.998 5.884-2.125 1.713-1.448.517-3.477.194-5.215 1.649.772 2.522 3.026 4.526 1.609 5.108-1.835 11.284-4.829 11.607-10.85-3.201-3.896 1.067-9.563-5.626-10.69-7.921-1.255-15.939 3.124-23.051 6.858-4.72 2.029-9.247 4.54-14 6.569l-.258.869c-9.7 3.992-19.27 8.21-29.389 11.108-2.586.934-5.205 1.803-7.76 2.866-9.343 1.931-18.686 3.928-27.933 6.407-.355 2.318-1.034 4.604-2.36 6.6 5.4 1.256 1.681 6.89.356 10.207-.744 3.252 2.101 5.151 4.914 5.892.582 2.608 3.233 3.638 5.367 4.733-4.947 3.702-14.97-8.307-14.97-.097l.389.934c.646.225 1.972.676 2.618.901 11.963 4.637 24.442 7.792 36.954 10.625 4.462.58 8.859 1.353 13.191 2.415 11.833 2.19 24.054 3.671 35.402 7.663 10.12.773-.84-3.574-4.72-5.924z" opacity=".3"/></svg>
